!!!OTL: Treue Liebe.
!!!ARE: Europa, Mitteleuropa, Deutschland
!!!SCT: A0039
!!!TXL: @@GMH
!!!YEM: Copyright 1995, estate of Helmut Schaffrath.
**kern	**text
*M3/2	*
*met(3)	*
*clefC4	*
*k[b-]	*
*F:ion	*
=1	=1
!LO:TX:a:t=jon. tr.	!
{2F	Es
2F	ſtet
2G	ein
=2	=2
1A	lind
2B-	in
=3	=3
2A	je-
1G	-nem
=4	=4
1F}	tal,
{2c	iſt
=5	=5
1d	o-
2c	-ben
=6	=6
1c	breit
2A	und
=7	=7
1B-	un-
2B-	-den
=8	=8
1A}	ſchmal,
{2c	da-
=9	=9
1d	-rauf
2c	da
=10	=10
1c	ſitʒt
2A	frau
=11	=11
*lig	*
2B-	Nach-
2A	.
*Xlig	*
2G	-ti-
=12	=12
1F}	-gal
{2B-	und
=13	=13
1A	an-
2G	-dre
=14	=14
1A	vög-
2B-	-lein
=15	=15
*lig	*
2c	vor
4B-	.
4A	.
*Xlig	*
2G	dem
=16	=16
1.F/ll}	wald.
==	==
!!!GTL: Balladen und Romanzen (erzählende Volkslieder)
!!!AGN: Romanze, Ballade, Lied
!! Melodie (von Boehme zum Text gesetzt): Souterliedekens 1544
!!    ad Ps. 66.
!!!ONB: ESAC (Essen Associative Code) Database: ALTDEU
!!!AMT: simple triple
!!!AIN: vox
!!!EED: Helmut Schaffrath
!!!EEV: 1.0
!!!RDF**kern: l = terminal long
!!!AMD: Ionian
!!!URL-scan: https://rosdok.uni-rostock.de/mcrviewer/recordIdentifier/rosdok_ppn738218359/iview2/phys_0188.iview2?x=-425.8853427895981&y=1375.8326241199393&scale=0.4823261117445838&rotation=0&layout=singlePageLayout&logicalDiv=log_0007
!!!ENC: Anna Maria Matuszewska
!!!EEV: 2024/19/02
*-	*-
